X:48
T: O Can You Sew Cushions 
N: HA048
O: Europa, Mitteleuropa, Deutschland
M: 3/4
L: 1/8
K: G
G2 | A3Bd2 | B2G2G2 | A3Bd2 | B4
G2 | A2Bcdc | BAG2A2 | c3dA2 | G4
G2 | A3Bg2 | B2G2G2 | A3Bg2 | e4
e2 | d2c2B2 | A2G2A2 | B3cA2 | G4z2
B2G2D2G2 | ABABA2G2
B3GD2G2 | A2ABG4
B2G2D2G2 | ABABA2G2
B2G2D2G2 | B6G2 | A2ABG4

